build/img/sprite_auto.svg

<svg xmlns="http://www.w3.org/2000/svg" xmlns:xlink="http://www.w3.org/1999/xlink"><symbol id="icon-arrow-down" viewBox="0 0 15 9">
<path d="M8.0853 8.66685L14.7604 1.99166C14.9149 1.83727 15 1.63118 15 1.41142C15 1.19167 14.9149 0.985572 14.7604 0.831183L14.2689 0.339602C13.9487 0.0197263 13.4282 0.0197262 13.1084 0.339602L7.50311 5.94492L1.89157 0.333382C1.73706 0.178993 1.53109 0.0937494 1.31146 0.0937494C1.09158 0.0937494 0.885606 0.178993 0.730973 0.333382L0.239635 0.824963C0.0851249 0.979474 3.76698e-06 1.18545 3.75737e-06 1.4052C3.74777e-06 1.62496 0.0851249 1.83105 0.239635 1.98544L6.9208 8.66685C7.0758 8.82161 7.28275 8.90661 7.50275 8.90612C7.7236 8.90661 7.93042 8.82161 8.0853 8.66685Z" fill="black"/>
</symbol><symbol id="icon-arrow-up" viewBox="0 0 18 12">
<path d="M8.29764 0.999386L0.287559 9.00962C0.102145 9.19488 -8.06437e-08 9.4422 -6.91167e-08 9.7059C-5.75898e-08 9.96961 0.102145 10.2169 0.287559 10.4022L0.87731 10.9921C1.2616 11.3759 1.88618 11.3759 2.26988 10.9921L8.99627 4.2657L15.7301 10.9996C15.9155 11.1848 16.1627 11.2871 16.4263 11.2871C16.6901 11.2871 16.9373 11.1848 17.1228 10.9995L17.7124 10.4097C17.8979 10.2242 18 9.97707 18 9.71337C18 9.44966 17.8979 9.20234 17.7124 9.01708L9.69504 0.999386C9.50904 0.813681 9.26071 0.711682 8.99671 0.712267C8.73169 0.711682 8.48349 0.813681 8.29764 0.999386Z" fill="white"/>
</symbol><symbol id="icon-like" viewBox="0 0 46 42">
<path d="M33.7812 0.695312C31.2851 0.695312 28.9966 1.4863 26.9794 3.04634C25.0456 4.54197 23.758 6.44693 23 7.83214C22.242 6.44684 20.9544 4.54197 19.0206 3.04634C17.0034 1.4863 14.7149 0.695312 12.2188 0.695312C5.25298 0.695312 0 6.39293 0 13.9485C0 22.1112 6.55347 27.696 16.4746 36.1505C18.1593 37.5863 20.0689 39.2138 22.0538 40.9494C22.3154 41.1785 22.6514 41.3047 23 41.3047C23.3486 41.3047 23.6846 41.1785 23.9462 40.9495C25.9312 39.2136 27.8408 37.5862 29.5265 36.1496C39.4465 27.696 46 22.1112 46 13.9485C46 6.39293 40.747 0.695312 33.7812 0.695312Z" fill="white"/>
</symbol></svg>

<svg xmlns="http://www.w3.org/2000/svg" xmlns:xlink="http://www.w3.org/1999/xlink"><symbol id="icon-arrow-down"><path d="M8.085 8.667l6.675-6.675a.815.815 0 00.24-.58.815.815 0 00-.24-.58L14.27.34a.822.822 0 00-1.16 0L7.502 5.945 1.892.333a.815.815 0 00-.58-.24.816.816 0 00-.581.24L.24.825a.815.815 0 00-.24.58c0 .22.085.426.24.58l6.68 6.682c.156.155.363.24.583.24.22 0 .427-.085.582-.24z" fill="#000"/></symbol><symbol id="icon-arrow-up"><path d="M8.298 1L.288 9.01A.977.977 0 000 9.706c0 .264.102.51.288.696l.59.59a.986.986 0 001.392 0l6.726-6.726L15.73 11a.978.978 0 00.696.287.979.979 0 00.697-.288l.59-.59A.978.978 0 0018 9.714a.977.977 0 00-.288-.696L9.695 1a.979.979 0 00-.698-.287.979.979 0 00-.7.287z" fill="#fff"/></symbol><symbol id="icon-like"><path d="M33.781.695c-2.496 0-4.784.791-6.802 2.351-1.933 1.496-3.221 3.4-3.979 4.786-.758-1.385-2.046-3.29-3.98-4.786-2.017-1.56-4.305-2.35-6.801-2.35C5.253.695 0 6.392 0 13.947 0 22.11 6.553 27.695 16.475 36.15a571.533 571.533 0 015.579 4.798 1.435 1.435 0 001.892 0c1.985-1.735 3.895-3.363 5.58-4.8C39.447 27.697 46 22.112 46 13.95 46 6.392 40.747.694 33.781.694z" fill="#fff"/></symbol><symbol id="icon-menu-close"><path d="M1 23.721L23 1m0 22.721L1 1" stroke="#000" stroke-opacity=".2" stroke-linecap="round" stroke-linejoin="round"/></symbol><symbol id="icon-menu-open"><path fill-rule="evenodd" clip-rule="evenodd" d="M3.75 21h22.5v-1H3.75v1zm0-6.25h22.5v-1H3.75v1zm0-7.25v1h22.5v-1H3.75z" fill="#000"/></symbol><symbol id="icon-tick"><path d="M4.527 7.388a1.161 1.161 0 01-1.643 0L.34 4.844a1.161 1.161 0 011.642-1.642l1.516 1.515c.115.115.3.115.415 0L8.018.613A1.161 1.161 0 019.66 2.255L4.527 7.388z" fill="#fff"/></symbol></svg>
